X:273
T: Ahavat hadassah
O:klezmer
A:yemeni
C: S.Shabazi
Z: John Chambers <jc@trillian.mit.edu> http://trillian.mit.edu/~jc/music/
M: 4/4
L: 1/8
Q: "Slowly and sadly"
W: The love of Zion is bound securely to my heart, but alas I am in the diaspora.
P: in C:
K: C
|: "C"G2 c2 c2 c2 | (de cd) e3 e \
w: Aha-vat ha-das-sah___ al l'-
| "Dm"g2 (fe) "G7"d2 f2 |1 "C"(e3 d c4) :|2 "C"e6 z2 ||
w: va-vi  nik-sh'-ra,__ \-ra,
|: "Dm"f3 e f3 e | "G7"(de) (cd) "C"e3 d \
w: va-a-ni b'- toch go-la p'-
|1 "F"c2 e2 "G7"d2 c2 | "C"g4 :|2 "F"c2e2 "G7"(dc) (Bd) | "C"c6 z2 |]
w: a-may tso-l'-lim. \-a-may tso-l'-lim.
P: in D:
K: D
|: "D"A2 d2 d2 d2 | ef de f3 f \
| "Em"a2 gf "A7"e2 g2 |1 "D"f3 e d4 :|2 "D"f6 z2 ||
|: "Em"g3 f g3 f | "A7"ef de "D"f3 e \
|1 "G"d2 f2 "A7"e2 d2 | "D"a4 :|2 "G"d2f2 "A7"ed ce | "D"d6 z2 |]
% From a handwritten MS:
%%sep 10 10 300
P: Harmony
K: D
|: A2-A2 B3A | ed d2 z2 dc \
| B3 d c2 A2 |1 B3 cdefz :|2 B3 c d2 z2 ||
|: z2 B2 e3 B | c2 Bc A3z \
|1 B4 c2 A2 | z2 de f2 d2 :|2 B4 c2 A2 | z2 de d2z2 |]





